icon-themes/sifr_svg/cmd/sc_fielddialog.svg

<svg viewBox="0 0 16 16" xmlns="http://www.w3.org/2000/svg"><path d="m2 1v7h2v-5h5v3h3v7h-8v-1h-2v3h12v-10l-4-4zm-1 8v2h6v-2z" fill="#555753"/></svg>

<svg xmlns="http://www.w3.org/2000/svg" viewBox="0 0 16 16">
  <path
     style="fill:#555753"
     d="M 2 1 L 2 8 L 4 8 L 4 3 L 9 3 L 9 6 L 12 6 L 12 13 L 4 13 L 4 12 L 2 12 L 2 15 L 14 15 L 14 5 L 10 1 L 2 1 z M 1 9 L 1 11 L 7 11 L 7 9 L 1 9 z "
     />
</svg>
